SF_Symbols/arrow.uturn.up.svg

<?xml version="1.0" encoding="UTF-8"?>
<svg xmlns="http://www.w3.org/2000/svg" xmlns:xlink="http://www.w3.org/1999/xlink" width="24" height="24" viewBox="0 0 24 24" version="1.1">
<g id="surface1">
<path style=" stroke:none;fill-rule:nonzero;fill:rgb(100%,100%,100%);fill-opacity:1;" d="M 8.542969 23.683594 C 10.035156 23.683594 11.347656 23.355469 12.480469 22.699219 C 13.621094 22.050781 14.511719 21.101562 15.152344 19.851562 C 15.792969 18.601562 16.113281 17.085938 16.113281 15.304688 L 16.113281 7.371094 L 15.949219 3.738281 L 15.410156 3.949219 L 17.894531 6.84375 L 21.1875 10.21875 C 21.28125 10.3125 21.386719 10.386719 21.503906 10.441406 C 21.621094 10.488281 21.753906 10.511719 21.902344 10.511719 C 22.207031 10.511719 22.453125 10.417969 22.640625 10.230469 C 22.835938 10.035156 22.933594 9.78125 22.933594 9.46875 C 22.933594 9.179688 22.828125 8.925781 22.617188 8.707031 L 15.855469 1.816406 C 15.738281 1.699219 15.613281 1.613281 15.480469 1.558594 C 15.347656 1.503906 15.210938 1.476562 15.070312 1.476562 C 14.921875 1.476562 14.78125 1.503906 14.648438 1.558594 C 14.515625 1.613281 14.394531 1.699219 14.285156 1.816406 L 7.523438 8.707031 C 7.304688 8.925781 7.195312 9.179688 7.195312 9.46875 C 7.195312 9.78125 7.292969 10.035156 7.488281 10.230469 C 7.683594 10.417969 7.929688 10.511719 8.226562 10.511719 C 8.382812 10.511719 8.519531 10.488281 8.636719 10.441406 C 8.753906 10.386719 8.859375 10.3125 8.953125 10.21875 L 12.246094 6.84375 L 14.730469 3.949219 L 14.179688 3.738281 L 14.027344 7.371094 L 14.027344 15.480469 C 14.027344 16.816406 13.796875 17.9375 13.335938 18.84375 C 12.882812 19.75 12.253906 20.4375 11.449219 20.90625 C 10.644531 21.367188 9.714844 21.597656 8.660156 21.597656 C 7.605469 21.597656 6.664062 21.367188 5.835938 20.90625 C 5.007812 20.4375 4.351562 19.75 3.867188 18.84375 C 3.390625 17.9375 3.152344 16.816406 3.152344 15.480469 L 3.152344 12.785156 C 3.152344 12.464844 3.050781 12.207031 2.847656 12.011719 C 2.644531 11.816406 2.398438 11.71875 2.109375 11.71875 C 1.820312 11.71875 1.574219 11.816406 1.371094 12.011719 C 1.167969 12.207031 1.066406 12.464844 1.066406 12.785156 L 1.066406 15.492188 C 1.066406 17.242188 1.378906 18.726562 2.003906 19.945312 C 2.628906 21.164062 3.5 22.089844 4.617188 22.722656 C 5.742188 23.363281 7.050781 23.683594 8.542969 23.683594 Z M 8.542969 23.683594 "/>
</g>
</svg>

<svg xmlns="http://www.w3.org/2000/svg" width="24" height="24"><path style="stroke:none;fill-rule:nonzero;fill:#fff;fill-opacity:1" d="M8.543 23.684c1.492 0 2.805-.329 3.937-.985 1.141-.648 2.032-1.597 2.672-2.847.641-1.25.961-2.766.961-4.547V7.37l-.164-3.633-.539.211 2.485 2.895 3.293 3.375c.093.094.199.168.316.222.117.047.25.07.398.07.305 0 .551-.093.739-.28.195-.196.293-.45.293-.762 0-.29-.106-.543-.317-.762l-6.762-6.89a1.096 1.096 0 0 0-1.207-.258c-.132.054-.253.14-.363.257L7.523 8.707c-.21.2-.328.473-.328.762 0 .312.098.566.293.761.196.188.442.282.739.282.14.004.28-.02.41-.07.117-.055.222-.13.316-.223l3.293-3.375 2.484-2.895-.55-.21-.153 3.632v8.11c0 1.335-.23 2.457-.691 3.363-.453.906-1.082 1.593-1.887 2.062-.804.461-1.734.692-2.789.692-1.055 0-1.996-.23-2.824-.692-.828-.468-1.484-1.156-1.969-2.062-.476-.907-.715-2.028-.715-3.364v-2.695c0-.32-.101-.578-.304-.773a1.04 1.04 0 0 0-.739-.293c-.289 0-.535.097-.738.293-.203.195-.305.453-.305.773v2.707c0 1.75.313 3.235.938 4.453.625 1.22 1.496 2.145 2.613 2.778 1.125.64 2.434.96 3.926.96Zm0 0"/></svg>
